X:1
T:James Gibb editions
T:When God of old came down from heaven - Barnby
%%score [ ( 1 2 ) ( 3 4 ) ]
L:1/8
Q:1/4=63
M:4/4
K:C
V:1 treble nm="Midi_74"
V:2 treble 
V:3 bass nm="Midi_74"
V:4 bass 
V:1
"^When God of old came down from heaven""^Joseph Barnby\n(1838-96)""^John Keble\n(1792-1866)""^C.M." G2 | %1
 c2 c2 B2 c2 | A2 A2 G2 || e2 | d2"^1" d2 c2 BA | B6 ||[M:4/4] G2 | A2 B2 c2 c2 | c2 d2 e2 || e2 | %10
 d2 c2 c2 B2 | c6 || c4 c4 |] %13
V:2
 E2 | E2 E2 E2 E2 | C2 F2 E2 || E2 | ^F2 G2 G2 F2 | G6 ||[M:4/4] D2 | E2 D2 C2 E2 | E2 A2 ^G2 || %9
 A!courtesy!=G | ^F2 =F2 E2 D2 | C6 || C4 E4 |] %13
V:3
 G,2 | G,2 A,2 G,2 G,2 | A,2 C2 C2 || C2 | D2 D2 E2 D2 | D6 || %6
[M:4/4]"^1 When God of old came down from heaven,\nIn power and wrath he came'\nBefore His feet the clouds were riven,\nHalf darkness and half flame;\n\n2 But when He came the second time,\nHe came in power and love;\nsofter than gale at morning prime\nHover'd His holy Dove.\n\n3 The fires that rush'd on Sinai down\nIn sudden torrents dread,\nNow gently light, a glorious crown,\nOn every sainted head." B,2 | %7
 C2 B,A, G,2 G,2 | %8
"^7 Come Lord, come Wisdom, Love, and Power,\nOpen our ears to hear;\nLet us not miss the accepted hour;\nSave, Lord, by love or fear." A,2 A,2 B,2 || %9
 A,2 | %10
"^4 And as on Israel's awe-struck ear\nThe voice exceeding loud,\nThe trump, that angels quake to hear,\nThrill'd from the deep dark cloud;\n\n5 So, when the Spirit of our God\nCame down His flock to find,\nA voice from heaven was heard abroad,\nA rushing mighty wind.\n\n6 It fills the Church of God; it fills\nThe sinful world around;\nOnly in stubborn hearts and wills\nNo place for it is found.\n" A,2 _A,2 G,3 F, | %11
 E,6 || A,4 G,4 |] %13
V:4
 C,2 | C,2 A,,2 E,2 C,2 | F,2 A,2 C2 || C,2 | C2 B,2 A,2 D,2 | G,6 ||[M:4/4] G,2 | %7
 G,2 F,2 E,2 C,2 | A,2 F,2 E,2 || ^C,2 | D,2 D,2 G,2 G,,2 | C,6 || F,4 C,4 |] %13

